X: 1189
T: An Cóngar Chun Na Tábhairne
R: polka
M: 2/4
K: Eminor
|:E>F GA|Be B>A|GE FD|ED B,D|
E>F GA|Be B>A|GE FD|E2 E2:|
|:Be B>A|Be B>A|GE FD|ED B,D|
Be B>A|Be B>A|GE FD|E2 E2:|

